X:91
T:House Party Reel
R:reel
C:Bruce Osborne  --  Dec.3 1991
Z:abc by bosborne@kos.net
M:2/4
L:1/8
K:D
A/G/|F/D/F/A/ B/G/B/d/|A/B/A/F/ D/F/A/F/|G/A/B/G/ A/B/A/F/|E/D/E/F/ EA/G/|\
F/D/F/A/ B/G/B/d/|A/B/A/F/ D/F/A/F/|G/A/B/G/ A/B/A/F/|E/D/C/E/ D:|
|:F/G/|A/F/B/F/ A/c/d/e/|f/a/f/d/ A/d/f/d/|e/f/e/c/ A/c/e/c/|a/g/a/b/ aF/G/|\
A/F/B/F/ A/c/d/e/|f/a/f/d/ A/d/f/d/|e/f/e/c/ A/c/e/c/|d/f/e/c/ d:|
